X: 54
T: Fang yang
%%abc-version 2.0
%%abcx-abcm2ps-target-version 5.9.1 (29 Sep 2008)
%%abc-creator hum2abc beta
%%abcx-conversion-date 2013/10/02 07:52:29
%%abc-edited-by Helmut Schaffrath
%%humdrum-veritas 337123795
%%humdrum-veritas-data 3603665192
%%continueall 1
%%barnumbers 0
L: 1/8
M: 2/4
K: G
d d/ e/d2 [I:setbarnb 1]| 
e B/ A/G2 | 
A A/ B/ d G | 
A> B A/ G/ E | 
D2G G/ A/ | 
G A E D | 
d2c c/ B/ | 
d G A3/ B/ | 
A/ G/ ED2 |]  



